packages/sights/assets/overlays/1-gwCM0m.svg

<svg width="500" height="375" viewBox="0 0 500 375" fill="none" xmlns="http://www.w3.org/2000/svg">
<path d="M356.961 5C356.961 5 389.521 16 391.961 17.79L398.841 26.2L399.451 39.5L461.071 94.68L493.011 113.94" stroke="white" stroke-miterlimit="10"/>
<path d="M493 259.55L473 278.81C473 278.81 489 210.25 443 196.49C443 196.49 347.84 174.02 306.11 330.4L133.16 369.31" stroke="white" stroke-miterlimit="10"/>
<path d="M7 86.4299C7 86.4299 353.29 88.2599 381.72 89.6399C381.72 89.6399 310.18 7.41994 305.59 5.18994" stroke="white" stroke-miterlimit="10"/>
<path d="M478.399 105.14L471.379 112.11V118.76L490.639 150.4L492.999 151.78" stroke="white" stroke-miterlimit="10"/>
<path d="M7.5 341.41L307.89 279.96C307.89 279.96 343.2 187.78 404.19 179.52" stroke="white" stroke-miterlimit="10"/>
<path d="M466.33 189.15C466.33 189.15 487.2 201.77 489.03 243.5L493.03 241.89" stroke="white" stroke-miterlimit="10"/>
<path d="M119.859 5C119.859 5 109.779 71.1 107.939 87L94.6394 137.83C94.6394 137.83 93.0694 244.42 98.5294 274C98.5294 274 99.8294 288.82 96.1694 297.08L89.3594 318.94L96.9294 361.59L104.609 369.5" stroke="white" stroke-miterlimit="10"/>
<path d="M352.37 135.61L358.56 138.37L360.97 139.05L381.72 138.14L382.87 137.33L379.08 134.33L379.77 133.07C379.77 133.07 391.69 133.64 392.5 135.25L394.9 138V144.42L393.18 145.11C393.18 145.11 346.18 148.32 342.62 148.11L339.07 146.62V141.12L341.82 138.59C341.82 138.59 347.55 135.73 352.37 135.61Z" stroke="white" stroke-miterlimit="10"/>
<path d="M8.5693 159.65L45.5693 158.12L47.5693 156.9L52.1593 151.24L55.2193 150.17L79.5193 152.62L81.5193 154.91L80.4493 164.39L77.8493 165.77C77.8493 165.77 21.8993 169.89 7.5293 171.42" stroke="white" stroke-miterlimit="10"/>
<path d="M309.279 319L314.459 330.1C314.459 330.1 346.249 365.26 349.619 368.01" stroke="white" stroke-miterlimit="10"/>
<path d="M397.07 201.83L426.99 207.52C426.99 207.52 477.89 221.46 471.4 282.36C471.4 282.36 462.76 340.75 415.68 369.52" stroke="white" stroke-miterlimit="10"/>
</svg>

<svg width="500" height="375" fill="none" xmlns="http://www.w3.org/2000/svg"><path d="M356.961 5s32.56 11 35 12.79l6.88 8.41.61 13.3 61.62 55.18 31.94 19.26M493 259.55l-20 19.26s16-68.56-30-82.32c0 0-95.16-22.47-136.89 133.91l-172.95 38.91M7 86.43s346.29 1.83 374.72 3.21c0 0-71.54-82.22-76.13-84.45M478.399 105.14l-7.02 6.97v6.65l19.26 31.64 2.36 1.38" stroke="#fff" stroke-miterlimit="10"/><path d="m7.5 341.41 300.39-61.45s35.31-92.18 96.3-100.44M466.33 189.15s20.87 12.62 22.7 54.35l4-1.61" stroke="#fff" stroke-miterlimit="10"/><path d="M119.859 5s-10.08 66.1-11.92 82l-13.3 50.83S93.07 244.42 98.53 274c0 0 1.3 14.82-2.36 23.08l-6.81 21.86 7.57 42.65 7.68 7.91M352.37 135.61l6.19 2.76 2.41.68 20.75-.91 1.15-.81-3.79-3 .69-1.26s11.92.57 12.73 2.18l2.4 2.75v6.42l-1.72.69s-47 3.21-50.56 3l-3.55-1.49v-5.5l2.75-2.53s5.73-2.86 10.55-2.98ZM8.57 159.65l37-1.53 2-1.22 4.59-5.66 3.06-1.07 24.3 2.45 2 2.29-1.07 9.48-2.6 1.38s-55.95 4.12-70.32 5.65M309.279 319l5.18 11.1s31.79 35.16 35.16 37.91M397.07 201.83l29.92 5.69s50.9 13.94 44.41 74.84c0 0-8.64 58.39-55.72 87.16" stroke="#fff" stroke-miterlimit="10"/></svg>
